X:1
T:Title
%%score { ( 1 3 4 ) | 2 }
L:1/8
M:4/4
K:Ab
V:1 treble nm="Grand Piano"
V:3 treble 
V:4 treble 
V:2 bass 
V:1
 z4 z2[Q:1/4=108] [CE]>[CE] | [CA]2 [FA]2 [EA]2 [DA]2 | [CA]2 [CA]4 [EA]>B | c2 c2 B2 A2 | %4
[M:3/4] B6 |[M:1/4] B>c |[M:4/4] d2 d2 c2 B2 | c2 A4 [EA]>[EA] | [=DA]2 [CDA]2 [B,DG]2 [B,DF]2 | %9
[M:3/4] [B,EG]6 |[M:1/4] [G,DF]>[G,DE] |[M:4/4] [A,CA]2 [A,FA]2 [A,EA]2 [DA]2 | %12
 [CA]2 [CA]4 [EA]>B | c2 c2 d2 c2 |[M:3/4] B6 |[M:1/4] c>d |[M:4/4] e2 e2 e2 f2 | e2 c4 [CA]>[DB] | %18
 z4 B4 |[M:3/4] [CA]6 |[M:1/4] c>d |[M:4/4] e2 e2 e2 f2 | e2 c4 c>c | c2 [Ec]2 [Ed]2 [Ec]2 | %24
[M:3/4] B6 |[M:1/4] c>d |[M:4/4] e2 c2 [EA]2 [CE]2 | [DF]2 [Fd]4 [EFc]>[DFB] | z4 c4 | %29
[M:3/4] [CA]6 |] %30
V:2
 z4 z2 [A,,A,]>[A,,A,] | [A,,A,]2 [D,A,]2 [C,A,]2 [B,,E,]2 | [A,,E,]2 [A,,E,]4 [C,A,]>[E,G,E] | %3
 [A,E]2 [A,E]2 [G,B,E]2 [F,B,=D]2 |[M:3/4] [E,G,E]6 |[M:1/4] [E,G,E]>[E,A,E] | %6
[M:4/4] [E,B,E]2 [E,B,E]2 [E,A,E]2 [E,G,E]2 | [A,E]2 [A,C]4 [C,A,]>[C,A,] | %8
 [B,,F,]2 B,,2 B,,2 B,,2 |[M:3/4] E,6 |[M:1/4] E,>E, |[M:4/4] A,,2 D,2 C,2 [B,,E,]2 | %12
 [A,,E,]2 [A,,E,]4 [C,A,]>[E,G,E] | [A,E]2 [A,E]2 [G,B,E]2 [A,E]2 |[M:3/4] [E,G,E]6 | %15
[M:1/4][K:treble] [A,E]>[A,B,E] |[M:4/4] [A,CA]2 [A,CA]2 [A,CA]2 [A,DA]2 | %17
 [A,CA]2[K:bass] [A,E]4 [A,,A,]>[A,,A,] | [A,,A,]2 [D,A,]2 [E,A,D]2 [E,G,]2 |[M:3/4] [A,,A,]6 | %20
[M:1/4][K:treble] [A,E]>[A,B,E] |[M:4/4] [A,CA]2 [A,CA]2 [A,CA]2 [A,DA]2 | %22
 [A,CA]2[K:bass] [A,E]4 [A,E]>[A,E] | [A,E]2 [A,,A,]2 [G,,B,]2 [A,,A,]2 |[M:3/4] [E,G,E]6 | %25
[M:1/4][K:treble] [A,E]>[A,B,E] |[M:4/4] [A,CA]2[K:bass] [A,E]2 [C,A,]2 [A,,A,]2 | %27
 [D,A,]2 [D,A,]4 D,>D, | [E,CE]2 [E,C]2 [E,A,E]2 [E,G,]2 |[M:3/4] [A,,A,]6 |] %30
V:3
 x8 | x8 | x8 | x8 |[M:3/4] x6 |[M:1/4] x2 |[M:4/4] x8 | x8 | x8 |[M:3/4] x6 |[M:1/4] x2 | %11
[M:4/4] x8 | x8 | x8 |[M:3/4] x6 |[M:1/4] x2 |[M:4/4] x8 | x8 | [Ec]2 [Fd]2 z2 z A |[M:3/4] x6 | %20
[M:1/4] x2 |[M:4/4] x8 | x8 | x8 |[M:3/4] x6 |[M:1/4] x2 |[M:4/4] x8 | x8 | A2 E2 z2 z B | %29
[M:3/4] x6 |] %30
V:4
 x8 | x8 | x8 | x8 |[M:3/4] x6 |[M:1/4] x2 |[M:4/4] x8 | x8 | x8 |[M:3/4] x6 |[M:1/4] x2 | %11
[M:4/4] x8 | x8 | x8 |[M:3/4] x6 |[M:1/4] x2 |[M:4/4] x8 | x8 | z4 z2 D2 |[M:3/4] x6 |[M:1/4] x2 | %21
[M:4/4] x8 | x8 | x8 |[M:3/4] x6 |[M:1/4] x2 |[M:4/4] x8 | x8 | z4 z2 D2 |[M:3/4] x6 |] %30

